!!!OTL: SAG MIR DAS WORT
!!!ARE: Europa, Mitteleuropa, Deutschland; Ireland
!!!SCT: B0728
!!!YEM: Copyright 1995, estate of Helmut Schaffrath.
**kern
*ICvox
*Ivox
*M4/4
*k[b-]
*F:
=1
{4f
8f
8g
4a
8a
8b-
=2
4cc
8dd
8cc
4a
4r}
=3
{4cc
8b-
8a
2g
=4
4b-
8a
8g
2f}
=5
{4f
8f
8g
4a
8a
8b-
=6
4cc
8dd
8cc
4a
4r}
=7
{4cc
8b-
8a
2g
=8
4b-
8a
8g
2f}
=9
{4cc
8b-
8a
4g
8c
8c
=10
4b-
8a
8g
4f
4r}
=11
{4cc
8b-
8a
4g
8c
8c
=12
4b-
8a
8g
4f
4r}
=13
{4f
8f
8g
4a
8a
8b-
=14
4cc
8dd
8cc
4a
4r}
=15
{4cc
8b-
8a
4g
8a
8g
=16
2f
2r}
==
!!!AGN: Liebes - Lied, Leid, Klage
!!!ONB: ESAC (Essen Associative Code) Database: BOEHME
!!!AMT: simple quadruple
!!!AIN: vox
!!!EED: Helmut Schaffrath
!!!EEV: 1.0
*-
